Flat-Remix-Dark/apps/scalable/flash.svg

<svg xmlns="http://www.w3.org/2000/svg" xmlns:xlink="http://www.w3.org/1999/xlink" width="384pt" height="384pt" version="1.1" viewBox="0 0 384 384">
 <defs>
  <filter id="alpha" width="100%" height="100%" x="0%" y="0%" filterUnits="objectBoundingBox">
   <feColorMatrix in="SourceGraphic" type="matrix" values="0 0 0 0 1 0 0 0 0 1 0 0 0 0 1 0 0 0 1 0"/>
  </filter>
  <mask id="mask0">
   <g filter="url(#alpha)">
    <rect width="384" height="384" x="0" y="0" style="fill:rgb(0%,0%,0%);fill-opacity:0.301961"/>
   </g>
  </mask>
  <clipPath id="clip1">
   <rect width="384" height="384" x="0" y="0"/>
  </clipPath>
  <g id="surface5" clip-path="url(#clip1)">
   <path style="fill:rgb(0%,0%,0%)" d="M 257.25 120.609375 L 257.25 151.167969 C 226.746094 151.699219 219.25 181.449219 219.25 181.449219 L 242.257812 181.449219 L 242.257812 212.003906 L 206.582031 212.003906 C 185.125 278.199219 135.75 272.304688 135.75 272.304688 L 135.75 241.75 C 135.75 241.75 167.082031 247.566406 183.058594 189.222656 C 203.042969 116.246094 257.25 120.609375 257.25 120.609375 Z M 257.25 120.609375"/>
  </g>
 </defs>
 <g>
  <path style="fill:rgb(83.137%,9.803%,9.803%)" d="M 192 23.25 C 285.199219 23.25 360.75 98.800781 360.75 192 C 360.75 285.195312 285.199219 360.75 192 360.75 C 98.800781 360.75 23.25 285.195312 23.25 192 C 23.25 98.800781 98.800781 23.25 192 23.25 Z M 192 23.25"/>
  <use mask="url(#mask0)" xlink:href="#surface5"/>
  <path style="fill:rgb(100.000%,100.000%,100.000%)" d="M 252.75 116.109375 L 252.75 146.667969 C 222.246094 147.199219 214.75 176.949219 214.75 176.949219 L 237.757812 176.949219 L 237.757812 207.503906 L 202.082031 207.503906 C 180.625 273.699219 131.25 267.804688 131.25 267.804688 L 131.25 237.25 C 131.25 237.25 162.582031 243.066406 178.558594 184.722656 C 198.542969 111.746094 252.75 116.109375 252.75 116.109375 Z M 252.75 116.109375"/>
 </g>
 <path style="opacity:0.3" d="M 31.082031 250 C 31.029818 251.99411 31 253.99329 31 256 C 31 380.26041 131.73437 481 256 481 C 380.26563 481 481 380.26041 481 256 C 481 253.99329 480.97018 251.99411 480.91797 250 C 477.73689 371.48659 378.25892 469 256 469 C 133.7411 469 34.263109 371.48659 31.082031 250 z" transform="scale(0.75)"/>
 <path style="fill:#ffffff;opacity:0.3" d="M 256 31 C 131.7344 31 31 131.73439 31 256 C 31 257.67185 31.028171 259.33685 31.064453 261 C 33.724845 139.04471 133.4063 41 256 41 C 378.5937 41 478.27516 139.04471 480.93555 261 C 480.97183 259.33685 481 257.67185 481 256 C 481 131.73439 380.2656 31 256 31 z" transform="scale(0.75)"/>
</svg>

<svg width="512" height="512" version="1.1" viewBox="0 0 384 384" xmlns="http://www.w3.org/2000/svg"><defs><clipPath><rect width="384" height="384"/></clipPath></defs><path d="m192 23.25c93.199 0 168.75 75.551 168.75 168.75 0 93.195-75.551 168.75-168.75 168.75-93.199 0-168.75-75.555-168.75-168.75 0-93.199 75.551-168.75 168.75-168.75z" fill="#d41717"/><path d="m252.75 123.61v30.559c-30.504 0.53125-38 30.281-38 30.281h23.008v30.555h-35.676c-21.457 66.195-70.832 60.301-70.832 60.301v-30.555s31.332 5.8164 47.309-52.527c19.984-72.977 74.191-68.613 74.191-68.613z" opacity=".3"/><path d="m252.75 116.11v30.559c-30.504 0.53125-38 30.281-38 30.281h23.008v30.555h-35.676c-21.457 66.195-70.832 60.301-70.832 60.301v-30.555s31.332 5.8164 47.309-52.527c19.984-72.977 74.191-68.613 74.191-68.613z" fill="#fff"/><path transform="scale(.75)" d="m31.082 250c-0.052213 1.9941-0.082031 3.9933-0.082031 6 0 124.26 100.73 225 225 225s225-100.74 225-225c0-2.0067-0.0298-4.0059-0.082-6-3.1811 121.49-102.66 219-224.92 219-122.26 0-221.74-97.513-224.92-219z" opacity=".3"/><path transform="scale(.75)" d="m256 31c-124.27 0-225 100.73-225 225 0 1.6718 0.02817 3.3368 0.06445 5 2.6604-121.96 102.34-220 224.94-220s222.28 98.045 224.94 220c0.03628-1.6632 0.06445-3.3282 0.06445-5 0-124.27-100.73-225-225-225z" fill="#fff" opacity=".3"/></svg>
